X:1
T:Hollowall
T:B Major            Jacob French, 1789
T:Transcribed from The New American Melody, 1789.
T:Isaac Watts, 1709 (Hymn 169, Book 2)            66. 66. 44. 44.
%%score [ 1 2 3 4 ]
L:1/8
Q:1/4=110
M:2/2
K:Eb
V:1 treble nm="Tr." snm="Tr."
V:2 treble nm="C." snm="C."
V:3 treble-8 nm="T." snm="T."
V:4 bass nm="B." snm="B."
V:1
"_1. And  can this mighty King   Of      glo  –  ry    con  –  de  –  scend?   And   will  he  write  his  name,          My      Fa – ther  and  my  friend?    I  love  his  name,  I" B4 | %1
 B2 G2 c2 B2 | B6 BA | G2 G2 c2 cB | B8- | B4 G4 | GA B2 c2 d2 | e6 d2 | c2 B2 c2 B2 | B8 | %10
 z4 B4 |: G2 F2 G2 G2 | %12
"_1. love his word;  Join  all  my  powers     And   praise  the  Lord.   I" GA B2 B2 B2 | %13
 [Ac]2 B2 c2 c2 | B6 B2 |1 B4 B4 :|2 B8 |] %17
V:2
"_2.  The Lord  Jehovah  reigns,   His    throne  is     built    on      high;      The  garments  he  as – sumes           Are     light   and  ma – jes – ty:       His glories shine  With" E4 | %1
 E2 E2 A2 F2 | G6 F2 | E2 ED CD E2 | F8- | F4 E4 | E2 F2 G2 F2 | (G4 AG) F2 | E2 E2 E2 [DF]2 | %9
 [EG]8 | z4 E4 |: E2 D2 E2 EF | %12
"_2.  beams  so  bright,   No     mor – tal   eye   Can   bear  the  sight.   His" G2 F2 G2 GF | %13
 EF G2 A2 G2 | F6 F2 |1 G4 E4 :|2 G8 |] %17
V:3
"_3. Thru' all  his ancient works  Sur  – pri  – sing    wis – dom    shines,  Confounds the powers of hell,            And breaks their curs'd designs:     Strong is his arm,  And" E4 | %1
 GA B2 e2 d2 | e6 d2 | c2 B2 A2 G2 | F8- | F4 B4 | c2 d2 e2 B2 | c6 BA | G2 E2 AG F2 | E8 | %10
 z4 G4 |: B2 B2 B2 cd | %12
"_3. shall   ful – fill      His       great  decrees,   His     sovereign   will.  Strong" e2 d2 e2 d2 | %13
 cd e2 f2 e2 | d6 d2 |1 e4 G4 :|2 e8 |] %17
V:4
 E,4 | E,F, G,2 A,2 B,2 | E,6 B,,2 | C,D, E,2 F,2 E,2 | B,,8- | B,,4 E,4 | C,2 B,,2 E,2 D,2 | %7
 (C,3 B,, A,,2) B,,2 | C,D, E,2 A,,2 B,,2 | [E,,E,]8 | z4 E,4 |: E,2 B,,2 E,2 E,D, | %12
 C,2 B,,2 E,F, G,2 | A,2 G,2 F,2 G,A, | B,6 B,,2 |1 E,4 E,4 :|2 E,8 |] %17

